editor/icons/Script.svg

<svg height="16" viewBox="0 0 16 16" width="16" xmlns="http://www.w3.org/2000/svg"><g transform="translate(0 -1036.4)"><path d="m6 1v1a1 1 0 0 0 -1 1v10h-1v-2h-2v2a1 1 0 0 0 .5.86523 1 1 0 0 0 .5.13477v1h7a2 2 0 0 0 2-2v-8h3v-2a2 2 0 0 0 -2-2z" fill="#e0e0e0" transform="translate(0 1036.4)"/><path d="m6 1c-1.1046 0-2 .89543-2 2v7h-2-1v1 2c0 1.1046.89543 2 2 2s2-.89543 2-2v-10c0-.55228.44772-1 1-1s1 .44772 1 1v1 1 1h1 4v-1h-4v-1-1c0-1.1046-.89543-2-2-2zm-4 10h2v2c0 .55228-.44772 1-1 1s-1-.44772-1-1z" fill="#b3b3b3" transform="translate(0 1036.4)"/><circle cx="3" cy="1048.4" fill="#e0e0e0"/></g></svg>

<?xml version="1.0" encoding="UTF-8" standalone="no"?>
<svg
   height="16"
   viewBox="0 0 16 16"
   width="16"
   version="1.1"
   id="svg10"
   sodipodi:docname="Script.svg"
   inkscape:version="1.1.2 (0a00cf5339, 2022-02-04)"
   xmlns:inkscape="http://www.inkscape.org/namespaces/inkscape"
   xmlns:sodipodi="http://sodipodi.sourceforge.net/DTD/sodipodi-0.dtd"
   xmlns="http://www.w3.org/2000/svg"
   xmlns:svg="http://www.w3.org/2000/svg">
  <defs
     id="defs14" />
  <sodipodi:namedview
     id="namedview12"
     pagecolor="#505050"
     bordercolor="#eeeeee"
     borderopacity="1"
     inkscape:pageshadow="0"
     inkscape:pageopacity="0"
     inkscape:pagecheckerboard="0"
     showgrid="false"
     inkscape:zoom="54.5625"
     inkscape:cx="8"
     inkscape:cy="7.9908362"
     inkscape:window-width="2560"
     inkscape:window-height="1411"
     inkscape:window-x="2560"
     inkscape:window-y="0"
     inkscape:window-maximized="1"
     inkscape:current-layer="svg10" />
  <path
     d="M 6,1 V 2 A 1,1 0 0 0 5,3 V 13 H 4 V 11 H 2 v 2 A 1,1 0 0 0 2.5,13.86523 1,1 0 0 0 3,14 v 1 h 7 a 2,2 0 0 0 2,-2 V 5 h 3 V 3 A 2,2 0 0 0 13,1 Z"
     fill="#e0e0e0"
     id="path2"
     style="fill:#ffb2d4;fill-opacity:1" />
  <path
     d="M 6,1 C 4.8954,1 4,1.89543 4,3 v 7 H 2 1 v 1 2 c 0,1.1046 0.89543,2 2,2 1.10457,0 2,-0.89543 2,-2 V 3 C 5,2.44772 5.44772,2 6,2 6.55228,2 7,2.44772 7,3 v 1 1 1 h 1 4 V 5 H 8 V 4 3 C 8,1.8954 7.10457,1 6,1 Z M 2,11 h 2 v 2 C 4,13.55228 3.55228,14 3,14 2.44772,14 2,13.55228 2,13 Z"
     fill="#b3b3b3"
     id="path4"
     style="fill:#b2748f;fill-opacity:1" />
  <circle
     cx="3"
     cy="12.000025"
     fill="#e0e0e0"
     id="circle6"
     r="0" />
</svg>
